UI/Travel-Transport-Tracking/SVG/rail-highspeed_solid_24px.svg

<svg width="24" height="24" viewBox="0 0 24 24" fill="none" xmlns="http://www.w3.org/2000/svg">
<path d="M18 20V22H6.00002V20H18ZM21 11V14C21 15.0609 20.5786 16.0783 19.8284 16.8284C19.0783 17.5786 18.0609 18 17 18H7.00002C5.93916 18 4.92174 17.5786 4.1716 16.8284C3.42145 16.0783 3.00002 15.0609 3.00002 14V11.31C2.96578 8.98426 3.8128 6.73169 5.37096 5.00472C6.92912 3.27776 9.08301 2.20432 11.4 2C12.6314 1.91773 13.8666 2.08958 15.0287 2.50489C16.1909 2.92019 17.2552 3.57007 18.1555 4.41415C19.0559 5.25822 19.773 6.27844 20.2623 7.41141C20.7517 8.54438 21.0028 9.76588 21 11ZM10 13H6.00002V15H10V13ZM12 10C13 10 18 9 18 8C18 6 15.31 4.00001 12 4.00001C8.69002 4.00001 6.00002 6 6.00002 8C6.00002 9 11 10 12 10ZM18 13H14V15H18V13Z" fill="#0F1621"/>
</svg>

<svg xmlns="http://www.w3.org/2000/svg" width="24" height="24" viewBox="0 0 24 24"><rect width="24" height="24" style="fill:none"/><path d="M18,20v2H6V20Zm3-9v3a4,4,0,0,1-4,4H7a4,4,0,0,1-4-4V11.31A9.21,9.21,0,0,1,11.4,2,9,9,0,0,1,21,11ZM10,13H6v2h4Zm2-3c1,0,6-1,6-2,0-2-2.69-4-6-4S6,6,6,8C6,9,11,10,12,10Zm6,3H14v2h4Z"/></svg>
